X:176
T:GB/6a/176 When Righteous Joseph Wedded Was
%%VWML:GB-6a-176-0
F:http://www.vwml.org/record/GB/6a/176
T:Version 2 of 2
C:Sung by Mr Ruff, Sutton, Petworth, VII. 07
C:Transcribed by Simon Furey and Lewis Jones
L:1/8
M:4/4
I:linebreak $
K:E
EF | G3 F E2 F2 | G2 AG F2 GA | B2 B2 G2 c2 | B6 AB |$ c2 A2 AB c2 | B3 A GF E2 | A2 B2 F2 GF |
E6 EF | G2 E2 E2 c2 |$ B6 B2 | c2 A2 AB c2 | B3 A GF E2 | A2 B2 F2 GF | E6 |]

